icon-themes/breeze_svg/cmd/lc_objectforwardone.svg

<svg viewBox="0 0 24 24" xmlns="http://www.w3.org/2000/svg"><path d="m12 4v1h8v-1zm-8 5v1h16v-1zm3.5 2-.21875.21875-3.28125 3.1875.71875.71875 2.28125-2.21875v7.09375h1v-7.09375l2.28125 2.21875.71875-.71875-3.28125-3.1875zm4.5 3v1h8v-1zm-2 5v1h10v-1z" fill="#4d4d4d"/></svg>

<svg xmlns="http://www.w3.org/2000/svg" viewBox="0 0 24 24">
 <path 
     style="fill:#4d4d4d" 
     d="M 12 4 L 12 5 L 20 5 L 20 4 L 12 4 z M 4 9 L 4 10 L 20 10 L 20 9 L 4 9 z M 7.5 11 L 7.28125 11.21875 L 4 14.40625 L 4.71875 15.125 L 7 12.90625 L 7 20 L 8 20 L 8 12.90625 L 10.28125 15.125 L 11 14.40625 L 7.71875 11.21875 L 7.5 11 z M 12 14 L 12 15 L 20 15 L 20 14 L 12 14 z M 10 19 L 10 20 L 20 20 L 20 19 L 10 19 z "
     />
 </svg>
